X:70
T: Este jő, szürkül bé
O: Gioseni (Bákó), 1929
Q: 1/4=144
M:2/4
L:1/4
K:F
D/A/ A | A/G/G | 
c/c/c/B/ | A/G/F | 
G/A/G/(F//C//) | C/C/ F | 
G/G/F/_E/ | D/<D/ D/ z/ | 

